polaris-icons/icons/new-icons/AnalyticsFunnelMinor.svg

<svg width="20" height="20" viewBox="0 0 20 20" fill="none" xmlns="http://www.w3.org/2000/svg">
<path fill-rule="evenodd" clip-rule="evenodd" d="M3.75821 6.68148C3.11307 4.88941 4.441 3 6.34565 3H13.6543C15.559 3 16.8869 4.88941 16.2418 6.68148L13.1818 15.1815C12.789 16.2726 11.754 17 10.5943 17H9.40565C8.24602 17 7.211 16.2726 6.81821 15.1815L3.75821 6.68148ZM6.34565 4.5C5.4799 4.5 4.8763 5.35882 5.16954 6.1734L5.46712 7H14.5329L14.8305 6.1734C15.1237 5.35882 14.5201 4.5 13.6543 4.5H6.34565ZM6.99712 11.25L6.00712 8.5H13.9929L13.0029 11.25L13 11.25H7L6.99712 11.25ZM7.53712 12.75L8.22954 14.6734C8.40808 15.1693 8.87855 15.5 9.40565 15.5H10.5943C11.1215 15.5 11.5919 15.1693 11.7705 14.6734L12.4629 12.75H7.53712Z" fill="#4A4A4A"/>
</svg>

<svg viewBox="0 0 20 20" xmlns="http://www.w3.org/2000/svg"><path fill-rule="evenodd" d="M3.758 6.681a2.75 2.75 0 0 1 2.588-3.681h7.308a2.75 2.75 0 0 1 2.588 3.681l-3.06 8.5a2.75 2.75 0 0 1-2.588 1.819h-1.188a2.75 2.75 0 0 1-2.588-1.819l-3.06-8.5Zm2.588-2.181a1.25 1.25 0 0 0-1.176 1.673l.297.827h9.066l.298-.827a1.25 1.25 0 0 0-1.177-1.673h-7.308Zm.651 6.75-.99-2.75h7.986l-.99 2.75h-6.006Zm.54 1.5.693 1.923a1.25 1.25 0 0 0 1.176.827h1.188c.527 0 .998-.33 1.177-.827l.692-1.923h-4.926Z" fill="#5C5F62"/></svg>
